assets/images/amex.svg

<svg height="48" viewBox="0 0 48 48" width="48" xmlns="http://www.w3.org/2000/svg"><path d="m45 35c0 2.210938-1.789062 4-4 4h-34c-2.210937 0-4-1.789062-4-4v-22c0-2.210937 1.789063-4 4-4h34c2.210938 0 4 1.789063 4 4z" fill="#1976d2"/><g fill="#fff"><path d="m22.253906 20-2.113281 4.683594-2.101562-4.683594h-2.695313v6.726563l-3.003906-6.726563h-2.273438l-3.066406 6.980469h1.816406l.667969-1.558594h3.433594l.683594 1.558594h3.464843v-5.183594l2.296875 5.183594h1.5625l2.351563-5.09375v5.09375h1.722656v-6.980469zm-12.117187 3.914063 1.023437-2.4375 1.066407 2.4375z"/><path d="m37.882813 23.414063 3.117187-3.394532h-2.21875l-1.992187 2.164063-1.929688-2.183594h-6.859375v6.980469h6.636719l2.089844-2.308594 2.039062 2.328125h2.210938zm-4.15625 2.101562h-4.007813v-1.378906h3.835938v-1.324219h-3.835938v-1.308594l4.230469.011719 1.695312 1.898438z"/></g></svg>

<svg xmlns="http://www.w3.org/2000/svg" width="42" height="30" viewBox="0 0 42 30"><g transform="translate(-3 -9)"><path d="M45,35a4,4,0,0,1-4,4H7a4,4,0,0,1-4-4V13A4,4,0,0,1,7,9H41a4,4,0,0,1,4,4Z" fill="#1976d2"/><path d="M22.254,20l-2.113,4.684L18.039,20h-2.7v6.727L12.34,20H10.066L7,26.98H8.816l.668-1.559h3.434L13.6,26.98h3.465V21.8l2.3,5.184h1.563l2.352-5.094V26.98H25V20ZM10.137,23.914l1.023-2.437,1.066,2.438Z" fill="#fff"/><path d="M37.883,23.414,41,20.02H38.781l-1.992,2.164L34.859,20H28v6.98h6.637l2.09-2.309L38.766,27h2.211Zm-4.156,2.1H29.719V24.137h3.836V22.813H29.719V21.5l4.23.012,1.7,1.9Z" fill="#fff"/></g></svg>
